!!!COM: Felix Mendelssohn
!!!CNT: Deutsch
!!!TXO: Deutsch
!!!OTL: Reiselied
!!!LYR: Heine
!!!OPS: Op. 34
!!!ONM: No. 6
!!!ENC: Daniel Alt & Leigh VanHandel
!!!YOR: Sa2mmtliche Lieder fu2r eine Singstimme 
!!!YOR: Neu revidirt von Dr. L. Benda, Ausgabe fu2r mittlere Stimme
!!!YOR: Braunschweig. Henry Litolff's Verlag. Boston and New York: Arthur P. Schmidt.
!!!ODT: 1834/
**kern	**silbe
*staff1	*
=1-	=1-
*clefG2	*
*k[b-]	*
*M12/8	*
1.r	.
=2	=2
2.r	.
4.r	.
4r	.
{8a	{Der
=3	=3
4a	Herbst-
8a	-wind
8a	ru2t-
8a-	-telt
8an	die
4.dd	Ba2u-
8a}	-me,}
8r	.
{8a	{die
=4	=4
4a	Nacht
8a	ist
4b-	feucht
8b-	und
[4.a	kalt;
8a]}	|}
8r	.
{8a	{ge-
=5	=5
4a	-hu2llt
8a	im
8a	grau-
8a-	|
8an	-en
4.dd	Man-
4a}	-tel}
8r	.
=6	=6
{4.dd	{rei-
4cc	-te
8cc	ich
4.b-	ein-
4.a	-sam,
=7	=7
4.g	ein-
4e	-sam
8e	im
2.a}	Wald,}
=8	=8
{4.dd	{rei-
4cc	-te
8cc	ich
4.b-	ein-
4.a	-sam,
=9	=9
4.g	ein-
4e	-sam
8a	im
2.d}	Wald.}
=10	=10
1.r	.
=11	=11
1.r	.
=12	=12
1.r	.
=13	=13
{8a	{Und
8a	wie
8a	ich
b-q	rei-
8a	|
8g	-te,
8a	so
4.cc	rei-
4.g	-ten
=14	=14
8a	mir
8a	die
8a	Ge-
b-q	-dan-
8a	|
8g	-ken
8a	vor-
4.cc}	aus,}
4r	.
{8g	{sie
=15	=15
b-q	tra-
8a	|
8g	-gen
8a	mich
8b-	leicht
8a	|
8b-	und
4.dd	luf-
4cc	-tig
8b-	nach
=16	=16
4a	mei-
8a	-ner
8b-	Lieb-
8cc	|
8dd	-sten
4.ee-}	Haus,}
{4.f	{sie
=17	=17
4.dd	tra-
4b-	-gen
8b-	mich
4.g	leicht
4.a	und
=18	=18
4.dd	luf-
4.b-	|
4.g	-tig
4.a	nach
=19	=19
4.cc	mei-
4.b-	-ner
[4.a	Lieb-
4a]	|
8g	-sten
=20	=20
2.g}	Haus,}
4.r	.
{4.g	{sie
=21	=21
4.dd	tra-
4b-	-gen
8b-	mich
4.g	leicht
4.a	und
=22	=22
4.dd	luf-
4.b-	|
4.g	-tig
4.a	nach
=23	=23
4.cc	mei-
4.b-	-ner
[4.a	Lieb-
4a]	|
8g	-sten
=24	=24
4.f}	Haus.}
4r	.
8r	.
4r	.
8r	.
4r	.
8r	.
=25	=25
1.r	.
=26	=26
2.r	.
4.r	.
4r	.
{8a	{Die
=27	=27
4a	Hun-
8a	-de
b-q	bel-
8a	|
8g	-len,
8a	die
4.cc	Die-
4g	-ner
8g	er-
=28	=28
8a	-schei-
8a	-nen
8a	mit
b-q	Ker-
8a	|
8g	-zen-
8a	-ge-
4.cc}	-flirr,}
4r	.
{8g	{die
=29	=29
b-q	Wen-
8a	|
8g	|
8a	-del-
8b-	-trep-
8a	|
8b-	-pe
4.dd	stu2rm'
4cc	ich
8b-	hin-
=30	=30
4a	-auf
8a	mit
8b-	Spo-
8cc	-ren-
8dd	-gek-
4.ee-}	-lirr,}
{4.f	{die
=31	=31
4.dd	Wen-
4.b-	-del-
4.g	-trep-
4.a	-pe
=32	=32
4.dd	stu2rm'
4.b-	|
4.g	ich
4.a	hin-
=33	=33
[4.cc	-auf
4cc]	|
8b-	mit
4.a	Spo-
4g	-ren-
8g	-ge-
=34	=34
4.f}	-klirr.}
4r	.
8r	.
4r	.
8r	.
4r	.
8r	.
=35	=35
1.r	.
=36	=36
2.r	.
4.r	.
4r	.
{8a	{Im
=37	=37
8a	leuch-
8a	-ten-
8a	-den
b-q	Tep-
8a	|
8g	-pich-
8a	-ge-
4.cc	-ma-
8g	-che,
8r	.
8g	wie
=38	=38
8a	ist
8a	es
8a	so
b-q	duf-
8a	|
8g	-tig
8a	und
[4.cc	warm,
8cc]}	|}
8r	.
{8g	{da
=39	=39
4a	har-
8a	-ret
8b-	mei-
8a	-ner
8b-	die
4.dd	Hol-
4cc	-de,
8b-	ich
=40	=40
8a	flie-
8g	-ge
8a	in
8b-	ih-
8cc	|
8dd	-ren
4.ee-}	Arm!}
{4.f	{da
=41	=41
4.dd	har-
4.b-	-ret
4.g	mei-
4a	-ner
8a	die
=42	=42
4.dd	Hol-
4.b-	|
4.g}	-de,}
{4.a	{ich
=43	=43
4.cc	flie-
4b-	-ge
8b-	in
4.a	ih-
4.g	-ren
=44	=44
2.g}	Arm,}
{2.g#	{ich
=45	=45
2.a	flie-
4.b-	-ge,
4.bn	ich
=46	=46
2.cc	flie-
4.a	-ge
4.ff	in
=47	=47
2.cc	ih-
4.b-	|
4.g	-ren
=48	=48
4.f}	Arm,}
4.r	.
4.r	.
{4.f	{in
=49	=49
[2.cc	ih-
4.cc]	|
4.b-	-ren
=50	=50
4.a	Arm,
4.f	ich
[4.f	flie-
8f]	|
8e	-ge
8f	in
=51	=51
[2.a	ih-
4.a]	|
4.g	-ren
=52	=52
4.f}	Arm!}
4r	.
8r	.
4r	.
8r	.
4r	.
8r	.
=53	=53
2.r	.
4.r	.
4r	.
{8a	{Es
=54	=54
8a	sa2u-
8a	-selt
8a	der
b-q	Wind
8a	|
8a-	in
8an	den
4.dd	Bla2t-
4.a}	-tern,}
=55	=55
2.r	.
4.r	.
4r	.
{8a	{es
=56	=56
[4.a	spricht
4a]	|
8a	der
4.f	Ei-
4.g	-chen-
=57	=57
2.a}	-baum:}
4.r	.
{4.d	{Was
=58	=58
4.e	willst
4.f	du,
4.g	tho2-
4a	-rich-
8a	-ter
=59	=59
1.b-	Rei-
=60	=60
2.a}	-ter,}
4.r	.
{4.d	{mit
=61	=61
[4.f	dei-
4f]	|
8d	-nem
4.f	tho2-
4e	-rich-
8d	-ten
=62	=62
2.d}	Traum?}
4r	.
8r	.
4r	.
8r	.
==	==
*-	*-